img/raw/icons/Instagram_Outline.svg

<?xml version="1.0" encoding="UTF-8"?>
<svg xmlns="http://www.w3.org/2000/svg" xmlns:xlink="http://www.w3.org/1999/xlink" width="500pt" height="500pt" viewBox="0 0 500 500" version="1.1">
<g id="surface1">
<path style=" stroke:none;fill-rule:nonzero;fill:#5B5B5B;fill-opacity:1;" d="M 160 30 C 88.324219 30 30 88.324219 30 160 L 30 340 C 30 411.675781 88.324219 470 160 470 L 340 470 C 411.675781 470 470 411.675781 470 340 L 470 160 C 470 88.324219 411.675781 30 340 30 Z M 160 50 L 340 50 C 400.863281 50 450 99.136719 450 160 L 450 340 C 450 400.863281 400.863281 450 340 450 L 160 450 C 99.136719 450 50 400.863281 50 340 L 50 160 C 50 99.136719 99.136719 50 160 50 Z M 370 110 C 358.953125 110 350 118.953125 350 130 C 350 141.046875 358.953125 150 370 150 C 381.046875 150 390 141.046875 390 130 C 390 118.953125 381.046875 110 370 110 Z M 250 140 C 189.367188 140 140 189.367188 140 250 C 140 310.632813 189.367188 360 250 360 C 310.632813 360 360 310.632813 360 250 C 360 189.367188 310.632813 140 250 140 Z M 250 160 C 299.824219 160 340 200.175781 340 250 C 340 299.824219 299.824219 340 250 340 C 200.175781 340 160 299.824219 160 250 C 160 200.175781 200.175781 160 250 160 Z "/>
</g>
</svg>

<?xml version="1.0" encoding="utf-8"?>
<!-- Generator: Adobe Illustrator 23.0.2, SVG Export Plug-In . SVG Version: 6.00 Build 0)  -->
<svg version="1.1" id="Layer_1" xmlns="http://www.w3.org/2000/svg" xmlns:xlink="http://www.w3.org/1999/xlink" x="0px" y="0px"
	 viewBox="0 0 500 500" style="enable-background:new 0 0 500 500;" xml:space="preserve">
<g id="surface1">
	<path d="M160,30C88.3,30,30,88.3,30,160v180c0,71.7,58.3,130,130,130h180c71.7,0,130-58.3,130-130V160c0-71.7-58.3-130-130-130H160
		z M160,50h180c60.9,0,110,49.1,110,110v180c0,60.9-49.1,110-110,110H160c-60.9,0-110-49.1-110-110V160C50,99.1,99.1,50,160,50z
		 M370,110c-11,0-20,9-20,20s9,20,20,20s20-9,20-20S381,110,370,110z M250,140c-60.6,0-110,49.4-110,110s49.4,110,110,110
		s110-49.4,110-110S310.6,140,250,140z M250,160c49.8,0,90,40.2,90,90s-40.2,90-90,90s-90-40.2-90-90S200.2,160,250,160z"/>
</g>
</svg>
